polaris-icons/icons/new-icons/CartDownMajor.svg

<svg width="20" height="20" viewBox="0 0 20 20" fill="none" xmlns="http://www.w3.org/2000/svg">
<path d="M3.25 3C2.83579 3 2.5 3.33579 2.5 3.75C2.5 4.16421 2.83579 4.5 3.25 4.5H4.86199C4.98863 4.5 5.09526 4.59469 5.11023 4.72045L6.15028 13.4569C6.25508 14.3371 7.00154 15 7.88801 15H14.25C14.6642 15 15 14.6642 15 14.25C15 13.8358 14.6642 13.5 14.25 13.5H7.88801C7.76137 13.5 7.65474 13.4053 7.63977 13.2796L7.54696 12.5H13.8979C15.3349 12.5 16.5296 11.3937 16.6398 9.96092L16.9978 5.30752C17.0296 4.89453 16.7205 4.53398 16.3075 4.50221C15.8945 4.47044 15.534 4.77948 15.5022 5.19248L15.1443 9.84587C15.0942 10.4971 14.5511 11 13.8979 11H7.36839L6.59972 4.54313C6.49492 3.66286 5.74847 3 4.86199 3H3.25Z" fill="#4A4A4A"/>
<path d="M12 3.75C12 3.33579 11.6642 3 11.25 3C10.8358 3 10.5 3.33579 10.5 3.75V7.43934L9.28033 6.21967C8.98744 5.92678 8.51256 5.92678 8.21967 6.21967C7.92678 6.51256 7.92678 6.98744 8.21967 7.28033L10.7197 9.78033C11.0126 10.0732 11.4874 10.0732 11.7803 9.78033L14.2803 7.28033C14.5732 6.98744 14.5732 6.51256 14.2803 6.21967C13.9874 5.92678 13.5126 5.92678 13.2197 6.21967L12 7.43934V3.75Z" fill="#4A4A4A"/>
<path d="M10 17C10 17.5523 9.55228 18 9 18C8.44772 18 8 17.5523 8 17C8 16.4477 8.44772 16 9 16C9.55228 16 10 16.4477 10 17Z" fill="#4A4A4A"/>
<path d="M15 17C15 17.5523 14.5523 18 14 18C13.4477 18 13 17.5523 13 17C13 16.4477 13.4477 16 14 16C14.5523 16 15 16.4477 15 17Z" fill="#4A4A4A"/>
</svg>

<svg viewBox="0 0 20 20" xmlns="http://www.w3.org/2000/svg"><path d="M3.25 3a.75.75 0 0 0 0 1.5h1.612a.25.25 0 0 1 .248.22l1.04 8.737a1.75 1.75 0 0 0 1.738 1.543h6.362a.75.75 0 0 0 0-1.5h-6.362a.25.25 0 0 1-.248-.22l-.093-.78h6.35a2.75 2.75 0 0 0 2.743-2.54l.358-4.652a.75.75 0 0 0-1.496-.116l-.358 4.654a1.25 1.25 0 0 1-1.246 1.154h-6.53l-.768-6.457a1.75 1.75 0 0 0-1.738-1.543h-1.612Z" fill="#5C5F62"/><path d="M12 3.75a.75.75 0 0 0-1.5 0v3.69l-1.22-1.22a.75.75 0 0 0-1.06 1.06l2.5 2.5a.75.75 0 0 0 1.06 0l2.5-2.5a.75.75 0 0 0-1.06-1.06l-1.22 1.22v-3.69Z" fill="#5C5F62"/><path d="M10 17a1 1 0 1 1-2 0 1 1 0 0 1 2 0Z" fill="#5C5F62"/><path d="M15 17a1 1 0 1 1-2 0 1 1 0 0 1 2 0Z" fill="#5C5F62"/></svg>
